img/icons/experience/designer.svg

<svg width="25" height="25" viewBox="0 0 25 25" fill="none" xmlns="http://www.w3.org/2000/svg">
<path d="M20.2645 19.1457L19.6145 19.5793L21.1449 21.875H3.85469L5.67773 19.1406H15.6023V18.3594H5.46875C5.40446 18.3594 5.34115 18.3752 5.28446 18.4055C5.22777 18.4359 5.17943 18.4797 5.14375 18.5332L2.8 22.0488C2.75732 22.1131 2.7345 22.1885 2.73438 22.2656V23.4375C2.73438 23.6447 2.81668 23.8434 2.9632 23.9899C3.10971 24.1364 3.30842 24.2188 3.51562 24.2188H21.4844C21.6916 24.2188 21.8903 24.1364 22.0368 23.9899C22.1833 23.8434 22.2656 23.6447 22.2656 23.4375V22.2656C22.2655 22.1885 22.2427 22.1131 22.2 22.0488L20.2645 19.1457ZM3.51562 23.4375V22.6562H21.4844V23.4375H3.51562Z" fill="black"/>
<path d="M20.3125 0.78125H4.6875C4.37698 0.782177 4.07945 0.90594 3.85988 1.12551C3.64032 1.34508 3.51655 1.64261 3.51562 1.95312V12.1094C3.51655 12.4199 3.64032 12.7174 3.85988 12.937C4.07945 13.1566 4.37698 13.2803 4.6875 13.2812H10.1562V14.8438H8.59375C8.49015 14.8438 8.39079 14.8849 8.31754 14.9582C8.24428 15.0314 8.20312 15.1308 8.20312 15.2344V16.7969C8.20312 16.9005 8.24428 16.9998 8.31754 17.0731C8.39079 17.1463 8.49015 17.1875 8.59375 17.1875H16.4062C16.5099 17.1875 16.6092 17.1463 16.6825 17.0731C16.7557 16.9998 16.7969 16.9005 16.7969 16.7969V15.2344C16.7969 15.1308 16.7557 15.0314 16.6825 14.9582C16.6092 14.8849 16.5099 14.8438 16.4062 14.8438H14.8438V13.2812H20.3125C20.623 13.2803 20.9205 13.1566 21.1401 12.937C21.3597 12.7174 21.4834 12.4199 21.4844 12.1094V1.95312C21.4834 1.64261 21.3597 1.34508 21.1401 1.12551C20.9205 0.90594 20.623 0.782177 20.3125 0.78125ZM16.0156 15.625V16.4062H8.98438V15.625H16.0156ZM10.9375 14.8438V13.2812H14.0625V14.8438H10.9375ZM20.7031 12.1094C20.7031 12.213 20.662 12.3123 20.5887 12.3856C20.5155 12.4588 20.4161 12.5 20.3125 12.5H4.6875C4.5839 12.5 4.48454 12.4588 4.41129 12.3856C4.33803 12.3123 4.29688 12.213 4.29688 12.1094V10.9375H20.7031V12.1094ZM20.7031 10.1562H4.29688V1.95312C4.29688 1.84952 4.33803 1.75017 4.41129 1.67691C4.48454 1.60366 4.5839 1.5625 4.6875 1.5625H20.3125C20.4161 1.5625 20.5155 1.60366 20.5887 1.67691C20.662 1.75017 20.7031 1.84952 20.7031 1.95312V10.1562Z" fill="black"/>
<path d="M18.3594 11.3281H19.1406V12.1094H18.3594V11.3281Z" fill="black"/>
<path d="M8.98438 9.375H10.5469C10.6505 9.375 10.7498 9.33385 10.8231 9.26059C10.8963 9.18733 10.9375 9.08798 10.9375 8.98438V8.59375H14.0625V8.98438C14.0625 9.08798 14.1037 9.18733 14.1769 9.26059C14.2502 9.33385 14.3495 9.375 14.4531 9.375H16.0156C16.1192 9.375 16.2186 9.33385 16.2918 9.26059C16.3651 9.18733 16.4062 9.08798 16.4062 8.98438V7.42188C16.4062 7.31827 16.3651 7.21892 16.2918 7.14566C16.2186 7.0724 16.1192 7.03125 16.0156 7.03125H15.625V4.6875H16.0156C16.1192 4.6875 16.2186 4.64634 16.2918 4.57309C16.3651 4.49983 16.4062 4.40048 16.4062 4.29688V2.73438C16.4062 2.63077 16.3651 2.53142 16.2918 2.45816C16.2186 2.38491 16.1192 2.34375 16.0156 2.34375H14.4531C14.3495 2.34375 14.2502 2.38491 14.1769 2.45816C14.1037 2.53142 14.0625 2.63077 14.0625 2.73438V3.125H10.9375V2.73438C10.9375 2.63077 10.8963 2.53142 10.8231 2.45816C10.7498 2.38491 10.6505 2.34375 10.5469 2.34375H8.98438C8.88077 2.34375 8.78142 2.38491 8.70816 2.45816C8.6349 2.53142 8.59375 2.63077 8.59375 2.73438V4.29688C8.59375 4.40048 8.6349 4.49983 8.70816 4.57309C8.78142 4.64634 8.88077 4.6875 8.98438 4.6875H9.375V7.03125H8.98438C8.88077 7.03125 8.78142 7.0724 8.70816 7.14566C8.6349 7.21892 8.59375 7.31827 8.59375 7.42188V8.98438C8.59375 9.08798 8.6349 9.18733 8.70816 9.26059C8.78142 9.33385 8.88077 9.375 8.98438 9.375ZM15.625 8.59375H14.8438V7.8125H15.625V8.59375ZM14.8438 3.125H15.625V3.90625H14.8438V3.125ZM9.375 3.125H10.1562V3.90625H9.375V3.125ZM10.1562 4.6875H10.5469C10.6505 4.6875 10.7498 4.64634 10.8231 4.57309C10.8963 4.49983 10.9375 4.40048 10.9375 4.29688V3.90625H14.0625V4.29688C14.0625 4.40048 14.1037 4.49983 14.1769 4.57309C14.2502 4.64634 14.3495 4.6875 14.4531 4.6875H14.8438V7.03125H14.4531C14.3495 7.03125 14.2502 7.0724 14.1769 7.14566C14.1037 7.21892 14.0625 7.31827 14.0625 7.42188V7.8125H10.9375V7.42188C10.9375 7.31827 10.8963 7.21892 10.8231 7.14566C10.7498 7.0724 10.6505 7.03125 10.5469 7.03125H10.1562V4.6875ZM9.375 7.8125H10.1562V8.59375H9.375V7.8125Z" fill="black"/>
<path d="M8.98438 20.3125H14.4531V21.0938H8.98438V20.3125Z" fill="black"/>
<path d="M23.3867 14.3906L22.2813 13.2852C22.2449 13.2488 22.2016 13.22 22.154 13.2006C22.1064 13.1811 22.0553 13.1714 22.0039 13.1719C21.9531 13.1714 21.9026 13.1812 21.8556 13.2006C21.8086 13.2201 21.7661 13.2489 21.7305 13.2852L16.4805 18.5352C16.4377 18.5779 16.4055 18.6301 16.3867 18.6875L16.1094 19.5156C16.0871 19.5843 16.084 19.6577 16.1005 19.728C16.1171 19.7982 16.1526 19.8626 16.2031 19.9141L15.6523 20.4688L16.2031 21.0195L16.7578 20.4688C16.7936 20.5048 16.8363 20.5333 16.8832 20.5528C16.9301 20.5722 16.9804 20.5822 17.0312 20.582C17.0736 20.5816 17.1157 20.575 17.1562 20.5625L17.9844 20.2852C18.0418 20.2664 18.094 20.2342 18.1367 20.1914L23.3867 14.9414C23.4595 14.8682 23.5003 14.7692 23.5003 14.666C23.5003 14.5628 23.4595 14.4638 23.3867 14.3906ZM17.6523 19.5742L17.1406 19.7422L16.9258 19.5313L17.0977 19.0195L20.8984 15.2188L21.4531 15.7695L17.6523 19.5742ZM22.0039 15.2188L21.4531 14.668L22.0039 14.1133L22.5586 14.668L22.0039 15.2188Z" fill="black"/>
</svg>

<svg width="25" height="25" fill="none" xmlns="http://www.w3.org/2000/svg"><path d="M20.265 19.146l-.65.433 1.53 2.296H3.855l1.823-2.734h9.924v-.782H5.47a.39.39 0 00-.325.174L2.8 22.05a.393.393 0 00-.066.217v1.172a.781.781 0 00.782.78h17.968a.781.781 0 00.782-.78v-1.172a.393.393 0 00-.066-.217l-1.935-2.903zm-16.75 4.291v-.78h17.97v.78H3.514zM20.313.781H4.688a1.175 1.175 0 00-1.172 1.172V12.11a1.175 1.175 0 001.171 1.172h5.47v1.563H8.593a.39.39 0 00-.39.39v1.563a.39.39 0 00.39.39h7.812a.391.391 0 00.39-.39v-1.563a.39.39 0 00-.39-.39h-1.562V13.28h5.469a1.175 1.175 0 001.171-1.172V1.953A1.176 1.176 0 0020.312.781zm-4.297 14.844v.781H8.984v-.781h7.032zm-5.078-.781V13.28h3.124v1.563h-3.124zm9.765-2.735a.39.39 0 01-.39.391H4.688a.39.39 0 01-.391-.39v-1.172h16.406v1.171zm0-1.953H4.297V1.953a.39.39 0 01.39-.39h15.625a.39.39 0 01.391.39v8.203z" fill="#000"/><path d="M18.36 11.328h.78v.781h-.78v-.78zM8.984 9.375h1.563a.39.39 0 00.39-.39v-.391h3.126v.39a.39.39 0 00.39.391h1.563a.39.39 0 00.39-.39V7.421a.39.39 0 00-.39-.39h-.391V4.686h.39a.39.39 0 00.391-.39V2.734a.39.39 0 00-.39-.39h-1.563a.39.39 0 00-.39.39v.391h-3.126v-.39a.39.39 0 00-.39-.391H8.984a.39.39 0 00-.39.39v1.563a.39.39 0 00.39.39h.391v2.344h-.39a.39.39 0 00-.391.39v1.563a.39.39 0 00.39.391zm6.641-.781h-.781v-.781h.781v.78zm-.781-5.469h.781v.781h-.781v-.781zm-5.469 0h.781v.781h-.781v-.781zm.781 1.563h.39a.39.39 0 00.392-.391v-.39h3.124v.39a.39.39 0 00.391.39h.39v2.344h-.39a.39.39 0 00-.39.39v.391h-3.126v-.39a.39.39 0 00-.39-.39h-.39V4.686zm-.781 3.125h.781v.78h-.781v-.78zm-.391 12.5h5.47v.78h-5.47v-.78zm14.403-5.923l-1.106-1.105a.386.386 0 00-.277-.113.38.38 0 00-.274.113l-5.25 5.25a.384.384 0 00-.093.152l-.278.829a.395.395 0 00.094.398l-.55.555.55.55.555-.55a.386.386 0 00.398.093l.828-.277a.384.384 0 00.153-.094l5.25-5.25a.39.39 0 000-.55zm-5.735 5.184l-.511.168-.215-.21.172-.512 3.8-3.801.555.55-3.8 3.805zm4.352-4.355l-.55-.551.55-.555.555.555-.555.55z" fill="#000"/></svg>
